!!!SOCIAL_FUNCTION:	songs of war
!!!PDT:	1918

Specific Region: Dakotas, Minnesota, Montana, Nebraska
!!!REG: Dakotas and Montana
!!!LING_GROUP: Siouan
!!!LANG: Tone
!!!OTL@ENG: Song Concerning White Butterfly
!!!ONM: No. 147
**kern
*Ifeme
*clefG2
*k[f#c#g#d#]
*M3/4
*MM56
16g#
=1
4g#
4e
8.e
16g#
=2
4g#
4a
4g#
=3||
*M2/4
8a
8g#
8g#
8e
=4||
*M3/4
8d#
8d#
4d#
4d#
=5||
*M2/4
8B#
8d#
4c#
=6
4..A
16c#
=7
4c#
8A
8A
=8
2A
=9
[2A
=10
2A_
=11
4..A]
16g#
=12||
*M3/4
4g#
[4e
8.e]
16g#
=13||
*M2/4
8.g#
16g#
8.a
16a
=14
4a
(8.a
16g#)
=15
4g#
8.a
16g#
=16
(8.g#
16e)
4e
=17
4d#
8.e
16e
=18
4e
(8.e
16d#)
=19
4d#
8.e
16e
=20
4e
8d#
8d#
=21
16e
8.d#
4c#
*clefF4
=22||
*M3/4
4c#
8.G#
16c#
8c#
8c#
=23
4d#
4d#
8e
16d#
16d#
=24||
*M2/4
4c#
12d#
12c#
12c#
=25||
*M3/4
4G#
2G#
=26||
*M2/4
4G#
8.G#
16G#
=27
2G#
==
*-
!!!CNT: Native American -- Sioux
!!!MRD: 1911/07//-1914///
!!!OCL: Frances Densmore
!!!YOR1: Teton Sioux Music, Bulletin 61,
!!!YOR2: Bureau of American Ethnology, Smithsonian Institution
!!!PPR: Government Printing Office
!!!PPP: Washington, D.C.
!!!PDT: 1918///
!!!ENC: Craig Stuart Sapp
!!!END: 2002/03/25/
!!!EEV: 2002/03/31/
!!!AGN: War Song/Song of a Typical War Expedition
!!!MPN@@SIO: Chanku'lawing
!!!MPN@ENG: Ms. Lawrence
!!!TXO: Teton Sioux
!!!MLC: Standing Rock Reservation, South Dakota, United States of America
!!!ARL: 45.9/-100.7#
!!!catalog: Catalogue No. 686
!!!PPG: 365
!!!EFL: 151/245
!!!VTS: 2975243614
